outputs/icons/device/wifi_alt_round.svg

<svg xmlns="http://www.w3.org/2000/svg" width="1200" height="1200" fill="none"><g clip-path="url(#a)"><path fill="#000" d="M600.005 200c-215.001 0-411.001 80-560.501 212-22 19.5-23.5 53-3 73.5l528.001 529c19.5 19.5 51 19.5 71 0l528-529c20.5-20.5 19-54-3-73.5-149.5-132-345.5-212-560.5-212"/></g><defs><clipPath id="a"><path fill="#fff" d="M0 0h1200v1200H0z"/></clipPath></defs></svg>

<svg width="1200" height="1200" viewBox="0 0 1200 1200" fill="none" xmlns="http://www.w3.org/2000/svg"><g clip-path="url(#clip0_231_4431)"><path d="M600.005 200C385.004 200 189.004 280 39.504 412C17.504 431.5 16.004 465 36.504 485.5L564.505 1014.5C584.005 1034 615.505 1034 635.505 1014.5L1163.505 485.5C1184.005 465 1182.505 431.5 1160.505 412C1011.005 280 815.005 200 600.005 200Z" fill="#1D1E23"/></g><defs><clipPath id="clip0_231_4431"><path width="24" fill="white" d="M0 0H1200V1200H0V0z"/></clipPath></defs></svg>
